icons/Zig-Light.svg

<svg xmlns="http://www.w3.org/2000/svg" width="256" height="256" fill="none" viewBox="0 0 256 256"><rect width="256" height="256" fill="#F4F2ED" rx="60"/><path fill="#F7A41D" d="M92.1177 71.8824L70.9413 97.7647L60.353 81.2941L92.1177 71.8824Z"/><path fill="#F7A41D" d="M92.1176 71.8825L76.8235 84.8236L70.9412 97.7648H63.8824V157.765H74.4706L61.5294 163.647L52.1176 183.647H38V71.8825H92.1176Z"/><path fill="#F7A41D" d="M74.4708 157.765L52.1178 183.647L42.7061 170.706L74.4708 157.765Z"/><path fill="#F7A41D" d="M103.882 71.8822L110.941 88.3528L81.5293 97.7646L103.882 71.8822Z"/><path fill="#F7A41D" d="M103.882 71.8822H168.588V97.7646H81.5293L103.882 83.647V71.8822Z"/><path fill="#F7A41D" d="M174.471 157.765L152.118 183.647L143.882 168.353L174.471 157.765Z"/><path fill="#F7A41D" d="M174.47 157.765L155.647 168.353L152.117 183.647H87.4116V157.765H174.47Z"/><path fill="#F7A41D" d="M214.47 46L99.1764 183.647L41.5293 210.706L156.823 71.8824L214.47 46Z"/><path fill="#F7A41D" d="M203.883 71.8824L202.706 93.0588L181.53 98.9412L203.883 71.8824Z"/><path fill="#F7A41D" d="M218 71.8825V183.647H162.706L179.177 169.53L185.059 157.765H192.118V98.9413H181.53L193.294 88.3531L203.883 71.8825H218Z"/><path fill="#F7A41D" d="M185.059 157.765L190.941 175.412L162.706 183.647L185.059 157.765Z"/></svg>

<svg xmlns="http://www.w3.org/2000/svg" width="256" height="256" fill="none" viewBox="0 0 256 256"><rect width="256" height="256" fill="#F4F2ED" rx="60"/><path fill="#F7A41D" d="M92.12 71.88 70.94 97.76 60.35 81.3z"/><path fill="#F7A41D" d="m92.12 71.88-15.3 12.94-5.88 12.94h-7.06v60h10.6l-12.95 5.89-9.41 20H38V71.88z"/><path fill="#F7A41D" d="m74.47 157.76-22.35 25.89-9.41-12.94zm29.41-85.88 7.06 16.47-29.41 9.41z"/><path fill="#F7A41D" d="M103.88 71.88h64.7v25.88H81.54l22.35-14.11zm70.59 85.88-22.35 25.89-8.24-15.3z"/><path fill="#F7A41D" d="m174.47 157.76-18.82 10.6-3.53 15.29h-64.7v-25.89z"/><path fill="#F7A41D" d="M214.47 46 99.17 183.65 41.54 210.7l115.3-138.83zm-10.59 25.88-1.17 21.18-21.18 5.88z"/><path fill="#F7A41D" d="M218 71.88v111.77h-55.3l16.48-14.12 5.88-11.77h7.06V98.95h-10.59l11.76-10.59 10.6-16.47z"/><path fill="#F7A41D" d="m185.06 157.76 5.88 17.65-28.23 8.24z"/></svg>
